public/icons/heart-hand.svg

<svg width="80" height="80" viewBox="0 0 80 80" fill="none" xmlns="http://www.w3.org/2000/svg">
<path fill-rule="evenodd" clip-rule="evenodd" d="M45.3465 0.03846C61.3788 0.641787 74.701 12.2051 79.0564 27.7221C82.94 41.5581 74.2893 54.3275 63.0984 63.2826C49.5334 74.1374 32.5945 85.9547 17.9545 76.6163C1.25378 65.9634 -3.83732 43.5609 2.85401 24.8545C8.98072 7.72647 27.2473 -0.642648 45.3465 0.03846Z" fill="#F5CDE2"/>
<path d="M38.667 42.6667H41.3337C42.0409 42.6667 42.7192 42.3857 43.2193 41.8856C43.7194 41.3855 44.0003 40.7072 44.0003 40C44.0003 39.2928 43.7194 38.6145 43.2193 38.1144C42.7192 37.6143 42.0409 37.3333 41.3337 37.3333H37.3337C36.5337 37.3333 35.867 37.6 35.467 38.1333L28.0003 45.3333M33.3337 50.6667L35.467 48.8C35.867 48.2667 36.5337 48 37.3337 48H42.667C44.1337 48 45.467 47.4667 46.4003 46.4L52.5337 40.5333C53.0482 40.0471 53.3485 39.3764 53.3685 38.6688C53.3885 37.9611 53.1266 37.2745 52.6403 36.76C52.1541 36.2455 51.4834 35.9452 50.7757 35.9252C50.0681 35.9052 49.3815 36.1671 48.867 36.6533L43.267 41.8533M26.667 44L34.667 52M50.0003 35.3333C50.9337 34.4 52.0003 33.2 52.0003 31.7333C52.0935 30.9186 51.9088 30.0962 51.4762 29.3995C51.0436 28.7028 50.3884 28.1726 49.6168 27.8949C48.8452 27.6171 48.0025 27.608 47.225 27.8691C46.4476 28.1302 45.7812 28.6461 45.3337 29.3333C44.8577 28.6994 44.1911 28.2348 43.4316 28.0077C42.6721 27.7806 41.8599 27.8029 41.114 28.0714C40.3682 28.3399 39.7281 28.8404 39.2877 29.4995C38.8472 30.1586 38.6297 30.9415 38.667 31.7333C38.667 33.3333 39.7337 34.4 40.667 35.4667L45.3337 40L50.0003 35.3333Z" stroke="#235753" stroke-width="2" stroke-linecap="round" stroke-linejoin="round"/>
</svg>

<svg width="80" height="80" fill="none" xmlns="http://www.w3.org/2000/svg"><path fill-rule="evenodd" clip-rule="evenodd" d="M45.346.038c16.033.604 29.355 12.167 33.71 27.684 3.884 13.836-4.767 26.605-15.958 35.56-13.565 10.855-30.504 22.673-45.144 13.334-16.7-10.653-21.791-33.055-15.1-51.761C8.981 7.726 27.247-.643 45.346.038z" fill="#F5CDE2"/><path d="M38.667 42.667h2.667a2.667 2.667 0 0 0 0-5.334h-4c-.8 0-1.467.267-1.867.8L28 45.333m5.334 5.334l2.133-1.867c.4-.533 1.067-.8 1.867-.8h5.333c1.467 0 2.8-.533 3.733-1.6l6.134-5.867a2.67 2.67 0 1 0-3.667-3.88l-5.6 5.2M26.667 44l8 8M50 35.333c.934-.933 2-2.133 2-3.6a3.64 3.64 0 0 0-6.666-2.4 3.706 3.706 0 0 0-6.667 2.4c0 1.6 1.067 2.667 2 3.734L45.334 40 50 35.333z" stroke="#235753" stroke-width="2" stroke-linecap="round" stroke-linejoin="round"/></svg>
